Yaru++/apps/scalable/desktop.svg

<svg height="256" viewBox="0 0 67.73 67.73" width="256" xmlns="http://www.w3.org/2000/svg" xmlns:xlink="http://www.w3.org/1999/xlink">
  <linearGradient id="linearGradient4226" gradientTransform="matrix(.11988932 0 0 .11988589 4.71591 230.83365)" gradientUnits="userSpaceOnUse" x1="529.655" x2="-35.31" y1="401.584" y2="119.093">
    <stop offset="0" stop-color="#fb7c38"/>
    <stop offset="1" stop-color="#9b33ae"/>
  </linearGradient>
  <filter id="filter965" color-interpolation-filters="sRGB" height="1.052" width="1.045" x="-.02" y="-.03">
    <feGaussianBlur stdDeviation="4.16"/>
  </filter>
  <filter id="filter4346" color-interpolation-filters="sRGB" height="1.022" width="1.026" x="-.01" y="-.01">
    <feGaussianBlur stdDeviation="2.12"/>
  </filter>
  <g transform="translate(0 -227.722527)">
    <path d="m189.84323 74c-70.59344 0-78.18921 7.250835-77.84323 77.98706v146.01294 146.01294c-.34598 70.73623 7.24979 77.98706 77.84323 77.98706h228.31354c70.59344 0 75.90613-7.27652 77.84323-77.98706v-146.01294-146.01294c0-70.737067-7.24979-77.98706-77.84323-77.98706z" filter="url(#filter4346)" opacity=".1" transform="matrix(0 -.13229167 .13229167 0 -5.073674 302.52436)"/>
    <path d="m189.84323 74c-70.59344 0-78.18921 7.250835-77.84323 77.98706v146.01294 146.01294c-.34598 70.73623 7.24979 77.98706 77.84323 77.98706h228.31354c70.59344 0 77.84323-7.24999 77.84323-77.98706v-146.01294-146.01294c0-70.737067-7.24979-77.98706-77.84323-77.98706z" filter="url(#filter965)" opacity=".2" transform="matrix(0 .13229167 .13229167 0 -5.073674 222.09245)"/>
    <path d="m15.032789 236.64485c-9.3578144-.0458-10.3166825 1.10191-10.3166825 10.44019v.14211.26459 29.65503c0 9.33893.9587596 10.29757 10.3166825 10.29757h19.316651 19.316134c9.357924 0 10.3172-.95864 10.3172-10.29757v-29.65503-.26459-.14211c0-9.33828-.959387-10.48595-10.3172-10.44019h-19.316134z" fill="url(#linearGradient4226)"/>
    <path d="m4.7161065 276.61761v.52916c0 9.33893.9587588 10.29757 10.3166825 10.29757h19.316651 19.316134c9.357924 0 10.3172-.95864 10.3172-10.29757v-.52916c0 9.33892-.959276 10.29756-10.3172 10.29756h-19.316134-19.316651c-9.3579237 0-10.3166825-.95864-10.3166825-10.29756z" opacity=".2"/>
    <path d="m13.927947 236.64485c-8.3551915-.0458-9.2113235 1.10191-9.2113235 10.44019v.14211.26459 29.65503c0 9.33893.856035 10.29757 9.2113235 10.29757h4.017843v-50.79949z" opacity=".3"/>
    <path d="m15.032789 236.64434c-9.3578144-.0458-10.3166825.95915-10.3166825 10.29808v.52916c0-9.33892.9588681-10.34385 10.3166825-10.29808h19.316651 19.316134c9.357813-.0458 10.3172.95916 10.3172 10.29808v-.52916c0-9.33893-.959387-10.34385-10.3172-10.29808h-19.316134z" fill="#fff" opacity=".2"/>
  </g>
</svg>

<svg xmlns="http://www.w3.org/2000/svg" xmlns:xlink="http://www.w3.org/1999/xlink" width="256" height="256" version="1.1" viewBox="0 0 67.73 67.73">
 <defs>
  <clipPath id="clipPath1025" clipPathUnits="userSpaceOnUse">
   <path d="M 111.94141,84 C 99.359506,84.145 90.1531,83.713998 82.625,87.867188 c -3.7641,2.0768 -6.751838,5.574737 -8.398438,9.960937 C 72.580062,102.21433 72,107.4241 72,114 v 42 h 160 v -26 c 0,-6.5759 -0.57996,-11.78566 -2.22656,-16.17188 -0.205,-0.5455 -0.47919,-1.03993 -0.74219,-1.54296 -0.1,-0.1848 -0.17844,-0.38051 -0.27344,-0.56641 -1.727,-3.38752 -4.25471,-6.14522 -7.38281,-7.87109 C 213.8463,99.694146 204.64049,100.1454 192.05859,100 H 192 151.66797 L 135.45312,84 h -23.49218 z" style="fill:#e3dfd5"/>
  </clipPath>
  <clipPath id="clipPath1082-3" clipPathUnits="userSpaceOnUse">
   <path d="M 361.9375,-212 C 507.2348,-212 528,-191.28677 528,-46.125 V 70.125 C 528,215.28618 507.2348,236 361.9375,236 H 214.0625 C 68.7652,236 48,215.28618 48,70.125 V -46.125 C 48,-191.28677 68.7652,-212 214.0625,-212 Z" style="fill:#8c59d9"/>
  </clipPath>
  <clipPath id="clipPath1082-3-5" clipPathUnits="userSpaceOnUse">
   <path d="M 361.9375,-212 C 507.2348,-212 528,-191.28677 528,-46.125 V 70.125 C 528,215.28618 507.2348,236 361.9375,236 H 214.0625 C 68.7652,236 48,215.28618 48,70.125 V -46.125 C 48,-191.28677 68.7652,-212 214.0625,-212 Z" style="fill:#8c59d9"/>
  </clipPath>
  <clipPath id="clipPath1082-3-9" clipPathUnits="userSpaceOnUse">
   <path d="M 361.9375,-212 C 507.2348,-212 528,-191.28677 528,-46.125 V 70.125 C 528,215.28618 507.2348,236 361.9375,236 H 214.0625 C 68.7652,236 48,215.28618 48,70.125 V -46.125 C 48,-191.28677 68.7652,-212 214.0625,-212 Z" style="fill:#8c59d9"/>
  </clipPath>
  <clipPath id="clipPath1082-3-3" clipPathUnits="userSpaceOnUse">
   <path d="M 361.9375,-212 C 507.2348,-212 528,-191.28677 528,-46.125 V 70.125 C 528,215.28618 507.2348,236 361.9375,236 H 214.0625 C 68.7652,236 48,215.28618 48,70.125 V -46.125 C 48,-191.28677 68.7652,-212 214.0625,-212 Z" style="fill:#8c59d9"/>
  </clipPath>
  <clipPath id="clipPath1082-3-53" clipPathUnits="userSpaceOnUse">
   <path d="M 361.9375,-212 C 507.2348,-212 528,-191.28677 528,-46.125 V 70.125 C 528,215.28618 507.2348,236 361.9375,236 H 214.0625 C 68.7652,236 48,215.28618 48,70.125 V -46.125 C 48,-191.28677 68.7652,-212 214.0625,-212 Z" style="fill:#8c59d9"/>
  </clipPath>
  <clipPath id="clipPath1082-3-6" clipPathUnits="userSpaceOnUse">
   <path d="M 361.9375,-212 C 507.2348,-212 528,-191.28677 528,-46.125 V 70.125 C 528,215.28618 507.2348,236 361.9375,236 H 214.0625 C 68.7652,236 48,215.28618 48,70.125 V -46.125 C 48,-191.28677 68.7652,-212 214.0625,-212 Z" style="fill:#8c59d9"/>
  </clipPath>
  <clipPath id="clipPath1082-3-91" clipPathUnits="userSpaceOnUse">
   <path d="M 361.9375,-212 C 507.2348,-212 528,-191.28677 528,-46.125 V 70.125 C 528,215.28618 507.2348,236 361.9375,236 H 214.0625 C 68.7652,236 48,215.28618 48,70.125 V -46.125 C 48,-191.28677 68.7652,-212 214.0625,-212 Z" style="fill:#8c59d9"/>
  </clipPath>
  <clipPath id="clipPath1025-0" clipPathUnits="userSpaceOnUse">
   <path style="fill:#8c59d9" d="M 329.9375,32 C 475.2348,32 496,52.71323 496,197.875 v 116.25 C 496,459.28618 475.2348,480 329.9375,480 H 182.0625 C 36.7652,480 16,459.28618 16,314.125 V 197.875 C 16,52.71323 36.7652,32 182.0625,32 Z"/>
  </clipPath>
  <clipPath id="clipPath4277-8" clipPathUnits="userSpaceOnUse">
   <rect style="opacity:0.81999972;fill:#88b637" width="512" height="512" x="0" y="0" ry="1"/>
  </clipPath>
  <linearGradient id="linearGradient3650-7-9">
   <stop style="stop-color:#5884f4" id="stop4366" offset="0"/>
   <stop id="stop4368" offset="1" style="stop-color:#80a3fa"/>
  </linearGradient>
  <clipPath id="clipPath1082-3-36" clipPathUnits="userSpaceOnUse">
   <path d="M 361.9375,-212 C 507.2348,-212 528,-191.28677 528,-46.125 V 70.125 C 528,215.28618 507.2348,236 361.9375,236 H 214.0625 C 68.7652,236 48,215.28618 48,70.125 V -46.125 C 48,-191.28677 68.7652,-212 214.0625,-212 Z" style="fill:#8c59d9"/>
  </clipPath>
  <clipPath id="clipPath983" clipPathUnits="userSpaceOnUse">
   <path d="M 115.03125,44 C 42.3826,44 32,54.356615 32,126.9375 v 58.125 C 32,257.64309 42.3826,268 115.03125,268 H 152 V 44 Z" style="fill:#4d4d4d"/>
  </clipPath>
  <clipPath id="clipPath1082-3-62" clipPathUnits="userSpaceOnUse">
   <path d="M 361.9375,-212 C 507.2348,-212 528,-191.28677 528,-46.125 V 70.125 C 528,215.28618 507.2348,236 361.9375,236 H 214.0625 C 68.7652,236 48,215.28618 48,70.125 V -46.125 C 48,-191.28677 68.7652,-212 214.0625,-212 Z" style="fill:#8c59d9"/>
  </clipPath>
  <clipPath id="clipPath949" clipPathUnits="userSpaceOnUse">
   <path d="M 329.9375,32 C 475.2348,32 496,52.71323 496,197.875 v 116.25 C 496,459.28618 475.2348,480 329.9375,480 H 182.0625 C 36.7652,480 16,459.28618 16,314.125 V 197.875 C 16,52.71323 36.7652,32 182.0625,32 Z" style="fill:#eab305"/>
  </clipPath>
  <clipPath id="clipPath954" clipPathUnits="userSpaceOnUse">
   <path d="M 329.9375,32 C 475.2348,32 496,52.71323 496,197.875 v 116.25 C 496,459.28618 475.2348,480 329.9375,480 H 182.0625 C 36.7652,480 16,459.28618 16,314.125 V 197.875 C 16,52.71323 36.7652,32 182.0625,32 Z" style="fill:#eab305"/>
  </clipPath>
  <clipPath id="clipPath1082-3-8" clipPathUnits="userSpaceOnUse">
   <path d="M 361.9375,-212 C 507.2348,-212 528,-191.28677 528,-46.125 V 70.125 C 528,215.28618 507.2348,236 361.9375,236 H 214.0625 C 68.7652,236 48,215.28618 48,70.125 V -46.125 C 48,-191.28677 68.7652,-212 214.0625,-212 Z" style="fill:#8c59d9"/>
  </clipPath>
  <clipPath id="clipPath1082-3-92" clipPathUnits="userSpaceOnUse">
   <path d="M 361.9375,-212 C 507.2348,-212 528,-191.28677 528,-46.125 V 70.125 C 528,215.28618 507.2348,236 361.9375,236 H 214.0625 C 68.7652,236 48,215.28618 48,70.125 V -46.125 C 48,-191.28677 68.7652,-212 214.0625,-212 Z" style="fill:#8c59d9"/>
  </clipPath>
  <clipPath id="clipPath1082" clipPathUnits="userSpaceOnUse">
   <path d="M 361.9375,-212 C 507.2348,-212 528,-191.28677 528,-46.125 V 70.125 C 528,215.28618 507.2348,236 361.9375,236 H 214.0625 C 68.7652,236 48,215.28618 48,70.125 V -46.125 C 48,-191.28677 68.7652,-212 214.0625,-212 Z" style="fill:#8c59d9"/>
  </clipPath>
  <clipPath id="clipPath1082-3-361" clipPathUnits="userSpaceOnUse">
   <path d="M 361.9375,-212 C 507.2348,-212 528,-191.28677 528,-46.125 V 70.125 C 528,215.28618 507.2348,236 361.9375,236 H 214.0625 C 68.7652,236 48,215.28618 48,70.125 V -46.125 C 48,-191.28677 68.7652,-212 214.0625,-212 Z" style="fill:#8c59d9"/>
  </clipPath>
  <clipPath id="clipPath1079" clipPathUnits="userSpaceOnUse">
   <circle style="fill:url(#linearGradient1083)" cx="213.843" cy="146" r="55" transform="scale(-1,1)"/>
  </clipPath>
  <clipPath id="clipPath984" clipPathUnits="userSpaceOnUse">
   <circle style="fill:url(#linearGradient1083)" cx="213.843" cy="146" r="55" transform="scale(-1,1)"/>
  </clipPath>
  <clipPath id="clipPath988" clipPathUnits="userSpaceOnUse">
   <circle style="fill:url(#linearGradient1083)" cx="213.843" cy="146" r="55" transform="scale(-1,1)"/>
  </clipPath>
  <clipPath id="clipPath992" clipPathUnits="userSpaceOnUse">
   <circle style="fill:url(#linearGradient1083)" cx="213.843" cy="146" r="55" transform="scale(-1,1)"/>
  </clipPath>
  <clipPath id="clipPath1082-3-31" clipPathUnits="userSpaceOnUse">
   <path d="M 361.9375,-212 C 507.2348,-212 528,-191.28677 528,-46.125 V 70.125 C 528,215.28618 507.2348,236 361.9375,236 H 214.0625 C 68.7652,236 48,215.28618 48,70.125 V -46.125 C 48,-191.28677 68.7652,-212 214.0625,-212 Z" style="fill:#8c59d9"/>
  </clipPath>
  <clipPath id="clipPath1205" clipPathUnits="userSpaceOnUse">
   <path d="M 115.03125,44 C 42.3826,44 32,54.356615 32,126.9375 v 58.125 c 0,13.772 0.379014,25.29352 1.482422,34.9375 H 270.51758 C 271.62099,210.35602 272,198.8345 272,185.0625 v -58.125 C 272,54.356615 261.6174,44 188.96875,44 Z" style="fill:#f1f0e9"/>
  </clipPath>
  <clipPath id="clipPath1082-3-4" clipPathUnits="userSpaceOnUse">
   <path d="M 361.9375,-212 C 507.2348,-212 528,-191.28677 528,-46.125 V 70.125 C 528,215.28618 507.2348,236 361.9375,236 H 214.0625 C 68.7652,236 48,215.28618 48,70.125 V -46.125 C 48,-191.28677 68.7652,-212 214.0625,-212 Z" style="fill:#8c59d9"/>
  </clipPath>
  <clipPath id="clipPath1082-3-45" clipPathUnits="userSpaceOnUse">
   <path d="M 361.9375,-212 C 507.2348,-212 528,-191.28677 528,-46.125 V 70.125 C 528,215.28618 507.2348,236 361.9375,236 H 214.0625 C 68.7652,236 48,215.28618 48,70.125 V -46.125 C 48,-191.28677 68.7652,-212 214.0625,-212 Z" style="fill:#8c59d9"/>
  </clipPath>
  <clipPath id="clipPath1082-3-61" clipPathUnits="userSpaceOnUse">
   <path d="M 361.9375,-212 C 507.2348,-212 528,-191.28677 528,-46.125 V 70.125 C 528,215.28618 507.2348,236 361.9375,236 H 214.0625 C 68.7652,236 48,215.28618 48,70.125 V -46.125 C 48,-191.28677 68.7652,-212 214.0625,-212 Z" style="fill:#8c59d9"/>
  </clipPath>
  <clipPath id="clipPath1064" clipPathUnits="userSpaceOnUse">
   <path style="fill:#a3dbf0" d="M 115.03125,44 C 42.3826,44 32,54.356615 32,126.9375 v 58.125 c 0,10.16582 0.217657,19.07051 0.767578,26.9375 3.376331,48.30069 19.790377,56 82.263672,56 h 73.9375 c 62.4733,0 78.88734,-7.69931 82.26367,-56 C 271.78234,204.13301 272,195.22832 272,185.0625 v -58.125 C 272,54.356615 261.6174,44 188.96875,44 Z"/>
  </clipPath>
  <clipPath id="clipPath1082-3-32" clipPathUnits="userSpaceOnUse">
   <path d="M 361.9375,-212 C 507.2348,-212 528,-191.28677 528,-46.125 V 70.125 C 528,215.28618 507.2348,236 361.9375,236 H 214.0625 C 68.7652,236 48,215.28618 48,70.125 V -46.125 C 48,-191.28677 68.7652,-212 214.0625,-212 Z" style="fill:#8c59d9"/>
  </clipPath>
  <clipPath id="clipPath947" clipPathUnits="userSpaceOnUse">
   <path d="m 191.43333,45.066672 c 77.49189,0 88.56666,11.047056 88.56666,88.466668 v 62 C 279.99999,272.95263 268.92522,284 191.43333,284 H 112.56666 C 35.074773,284 23.999999,272.95263 23.999999,195.53334 v -62 c 0,-77.419612 11.074774,-88.466668 88.566661,-88.466668 z" style="fill:#a4c1f9"/>
  </clipPath>
  <clipPath id="clipPath1082-3-55" clipPathUnits="userSpaceOnUse">
   <path d="M 361.9375,-212 C 507.2348,-212 528,-191.28677 528,-46.125 V 70.125 C 528,215.28618 507.2348,236 361.9375,236 H 214.0625 C 68.7652,236 48,215.28618 48,70.125 V -46.125 C 48,-191.28677 68.7652,-212 214.0625,-212 Z" style="fill:#8c59d9"/>
  </clipPath>
  <clipPath id="clipPath991" clipPathUnits="userSpaceOnUse">
   <path d="M 188.96875,44 C 261.6174,44 272,54.356615 272,126.9375 v 58.125 C 272,257.64309 261.6174,268 188.96875,268 h -73.9375 C 42.3826,268 32,257.64309 32,185.0625 v -58.125 C 32,54.356615 42.3826,44 115.03125,44 Z" style="fill:#6dc7f1"/>
  </clipPath>
  <clipPath id="clipPath978" clipPathUnits="userSpaceOnUse">
   <path d="M 188.96875,44 C 261.6174,44 272,54.356615 272,126.9375 v 58.125 C 272,257.64309 261.6174,268 188.96875,268 h -73.9375 C 42.3826,268 32,257.64309 32,185.0625 v -58.125 C 32,54.356615 42.3826,44 115.03125,44 Z" style="fill:#6dc7f1"/>
  </clipPath>
  <clipPath id="clipPath942" clipPathUnits="userSpaceOnUse">
   <path d="M 188.96875,44 C 261.6174,44 272,54.356615 272,126.9375 v 58.125 C 272,257.64309 261.6174,268 188.96875,268 h -73.9375 C 42.3826,268 32,257.64309 32,185.0625 v -58.125 C 32,54.356615 42.3826,44 115.03125,44 Z" style="fill:#46a926"/>
  </clipPath>
  <clipPath id="clipPath1082-3-7" clipPathUnits="userSpaceOnUse">
   <path d="M 361.9375,-212 C 507.2348,-212 528,-191.28677 528,-46.125 V 70.125 C 528,215.28618 507.2348,236 361.9375,236 H 214.0625 C 68.7652,236 48,215.28618 48,70.125 V -46.125 C 48,-191.28677 68.7652,-212 214.0625,-212 Z" style="fill:#8c59d9"/>
  </clipPath>
  <radialGradient id="radialGradient3322" cx="26.617" cy="-2.065" r="23" gradientTransform="matrix(-4.8906e-8,-2.8515,3.7557,0,674.00149,398.26285)" gradientUnits="userSpaceOnUse">
   <stop id="stop2749" offset="0" style="stop-color:#d280b9"/>
   <stop style="stop-color:#b549b5" id="stop4269" offset=".529"/>
   <stop id="stop2755" offset="1" style="stop-color:#8940a8"/>
  </radialGradient>
  <clipPath id="clipPath1082-3-69" clipPathUnits="userSpaceOnUse">
   <path d="M 361.9375,-212 C 507.2348,-212 528,-191.28677 528,-46.125 V 70.125 C 528,215.28618 507.2348,236 361.9375,236 H 214.0625 C 68.7652,236 48,215.28618 48,70.125 V -46.125 C 48,-191.28677 68.7652,-212 214.0625,-212 Z" style="fill:#8c59d9"/>
  </clipPath>
  <clipPath id="clipPath1082-3-452" clipPathUnits="userSpaceOnUse">
   <path d="M 361.9375,-212 C 507.2348,-212 528,-191.28677 528,-46.125 V 70.125 C 528,215.28618 507.2348,236 361.9375,236 H 214.0625 C 68.7652,236 48,215.28618 48,70.125 V -46.125 C 48,-191.28677 68.7652,-212 214.0625,-212 Z" style="fill:#8c59d9"/>
  </clipPath>
  <clipPath id="clipPath1082-3-74" clipPathUnits="userSpaceOnUse">
   <path d="M 361.9375,-212 C 507.2348,-212 528,-191.28677 528,-46.125 V 70.125 C 528,215.28618 507.2348,236 361.9375,236 H 214.0625 C 68.7652,236 48,215.28618 48,70.125 V -46.125 C 48,-191.28677 68.7652,-212 214.0625,-212 Z" style="fill:#8c59d9"/>
  </clipPath>
  <clipPath id="clipPath1032" clipPathUnits="userSpaceOnUse">
   <path d="M 188.96875,44 C 261.6174,44 272,54.356615 272,126.9375 v 58.125 C 272,257.64309 261.6174,268 188.96875,268 h -73.9375 C 42.3826,268 32,257.64309 32,185.0625 v -58.125 C 32,54.356615 42.3826,44 115.03125,44 Z" style="fill:#76c22b"/>
  </clipPath>
  <clipPath id="clipPath1082-3-0" clipPathUnits="userSpaceOnUse">
   <path d="M 361.9375,-212 C 507.2348,-212 528,-191.28677 528,-46.125 V 70.125 C 528,215.28618 507.2348,236 361.9375,236 H 214.0625 C 68.7652,236 48,215.28618 48,70.125 V -46.125 C 48,-191.28677 68.7652,-212 214.0625,-212 Z" style="fill:#8c59d9"/>
  </clipPath>
  <clipPath id="clipPath1082-3-89" clipPathUnits="userSpaceOnUse">
   <path d="M 361.9375,-212 C 507.2348,-212 528,-191.28677 528,-46.125 V 70.125 C 528,215.28618 507.2348,236 361.9375,236 H 214.0625 C 68.7652,236 48,215.28618 48,70.125 V -46.125 C 48,-191.28677 68.7652,-212 214.0625,-212 Z" style="fill:#8c59d9"/>
  </clipPath>
  <clipPath id="clipPath951" clipPathUnits="userSpaceOnUse">
   <path style="fill:#8c59d9" d="M 188.96875,44 C 261.6174,44 272,54.356615 272,126.9375 v 58.125 C 272,257.64309 261.6174,268 188.96875,268 h -73.9375 C 42.3826,268 32,257.64309 32,185.0625 v -58.125 C 32,54.356615 42.3826,44 115.03125,44 Z"/>
  </clipPath>
  <clipPath id="clipPath1082-3-64" clipPathUnits="userSpaceOnUse">
   <path d="M 361.9375,-212 C 507.2348,-212 528,-191.28677 528,-46.125 V 70.125 C 528,215.28618 507.2348,236 361.9375,236 H 214.0625 C 68.7652,236 48,215.28618 48,70.125 V -46.125 C 48,-191.28677 68.7652,-212 214.0625,-212 Z" style="fill:#8c59d9"/>
  </clipPath>
  <clipPath id="clipPath1082-3-04" clipPathUnits="userSpaceOnUse">
   <path d="M 361.9375,-212 C 507.2348,-212 528,-191.28677 528,-46.125 V 70.125 C 528,215.28618 507.2348,236 361.9375,236 H 214.0625 C 68.7652,236 48,215.28618 48,70.125 V -46.125 C 48,-191.28677 68.7652,-212 214.0625,-212 Z" style="fill:#8c59d9"/>
  </clipPath>
  <clipPath id="clipPath1082-3-367" clipPathUnits="userSpaceOnUse">
   <path d="M 361.9375,-212 C 507.2348,-212 528,-191.28677 528,-46.125 V 70.125 C 528,215.28618 507.2348,236 361.9375,236 H 214.0625 C 68.7652,236 48,215.28618 48,70.125 V -46.125 C 48,-191.28677 68.7652,-212 214.0625,-212 Z" style="fill:#8c59d9"/>
  </clipPath>
  <linearGradient id="linearGradient4336-3">
   <stop style="stop-color:#5884f4" id="stop4338-8" offset="0"/>
   <stop id="stop4344-3" offset=".278" style="stop-color:#5884f4"/>
   <stop style="stop-color:#2f5fdd" id="stop4346-3" offset=".278"/>
   <stop id="stop4350-1" offset=".707" style="stop-color:#2f5fdd"/>
   <stop id="stop4348-6" offset=".709" style="stop-color:#234db8"/>
   <stop style="stop-color:#234db8" id="stop4340-0" offset="1"/>
  </linearGradient>
  <clipPath id="clipPath1082-3-56" clipPathUnits="userSpaceOnUse">
   <path d="M 361.9375,-212 C 507.2348,-212 528,-191.28677 528,-46.125 V 70.125 C 528,215.28618 507.2348,236 361.9375,236 H 214.0625 C 68.7652,236 48,215.28618 48,70.125 V -46.125 C 48,-191.28677 68.7652,-212 214.0625,-212 Z" style="fill:#8c59d9"/>
  </clipPath>
  <linearGradient id="linearGradient3797-5">
   <stop id="stop3801" offset="0" style="stop-color:#f7f7f7"/>
   <stop id="stop3799" offset="1" style="stop-color:#e6e6e6"/>
  </linearGradient>
  <clipPath id="clipPath1082-3-3675" clipPathUnits="userSpaceOnUse">
   <path d="M 361.9375,-212 C 507.2348,-212 528,-191.28677 528,-46.125 V 70.125 C 528,215.28618 507.2348,236 361.9375,236 H 214.0625 C 68.7652,236 48,215.28618 48,70.125 V -46.125 C 48,-191.28677 68.7652,-212 214.0625,-212 Z" style="fill:#8c59d9"/>
  </clipPath>
  <clipPath id="clipPath977" clipPathUnits="userSpaceOnUse">
   <path d="M 78.994141,52 C 43.625611,52 40,53.999146 40,89.296875 V 140 H 264 V 108.92188 C 264,73.624145 260.37439,68 225.00586,68 H 138 L 122,52 Z" style="fill:#f6531e"/>
  </clipPath>
  <clipPath id="clipPath942-3" clipPathUnits="userSpaceOnUse">
   <path d="m 39.998047,108 v 113.08203 c 0,35.29672 3.623657,38.91992 38.992187,38.91992 h 73.007816 73.00586 c 35.36853,0 38.99414,-3.6232 38.99414,-38.91992 V 108 Z" style="fill:url(#linearGradient946)"/>
  </clipPath>
  <linearGradient id="linearGradient4226" x1="529.655" x2="-35.31" y1="401.584" y2="119.093" gradientTransform="matrix(0.11988932,0,0,0.11988589,4.7159095,230.83365)" gradientUnits="userSpaceOnUse" xlink:href="#linearGradient1674"/>
  <linearGradient id="linearGradient1674">
   <stop id="stop1670" offset="0" style="stop-color:#fb7c38"/>
   <stop id="stop1672" offset="1" style="stop-color:#9b33ae"/>
  </linearGradient>
  <filter style="color-interpolation-filters:sRGB" id="filter965" width="1.045" height="1.052" x="-.02" y="-.03">
   <feGaussianBlur id="feGaussianBlur967" stdDeviation="4.16"/>
  </filter>
  <filter style="color-interpolation-filters:sRGB" id="filter4346" width="1.026" height="1.022" x="-.01" y="-.01">
   <feGaussianBlur id="feGaussianBlur4348" stdDeviation="2.12"/>
  </filter>
 </defs>
 <g id="layer1" transform="translate(0,-229.26666)">
  <g transform="translate(0,1.5441334)">
   <path style="opacity:0.1;filter:url(#filter4346)" d="M 189.84323,74 C 119.24979,74 111.65402,81.250835 112,151.98706 V 298 444.01294 C 111.65402,514.74917 119.24979,522 189.84323,522 H 418.15677 C 488.75021,522 494.0629,514.72348 496,444.01294 V 298 151.98706 C 496,81.249993 488.75021,74 418.15677,74 Z" transform="matrix(0,-0.13229167,0.13229167,0,-5.0736735,302.52436)"/>
   <path d="M 189.84323,74 C 119.24979,74 111.65402,81.250835 112,151.98706 V 298 444.01294 C 111.65402,514.74917 119.24979,522 189.84323,522 H 418.15677 C 488.75021,522 496,514.75001 496,444.01294 V 298 151.98706 C 496,81.249993 488.75021,74 418.15677,74 Z" transform="matrix(0,0.13229167,0.13229167,0,-5.0736735,222.09245)" style="opacity:0.2;filter:url(#filter965)"/>
   <path style="fill:url(#linearGradient4226)" d="m 15.032789,236.64485 c -9.3578144,-0.0458 -10.3166825,1.10191 -10.3166825,10.44019 v 0.14211 0.26459 29.65503 c 0,9.33893 0.9587596,10.29757 10.3166825,10.29757 H 34.34944 53.665574 c 9.357924,0 10.3172,-0.95864 10.3172,-10.29757 v -29.65503 -0.26459 -0.14211 c 0,-9.33828 -0.959387,-10.48595 -10.3172,-10.44019 H 34.34944 Z"/>
   <path style="opacity:0.2" d="m 4.7161065,276.61761 v 0.52916 c 0,9.33893 0.9587588,10.29757 10.3166825,10.29757 H 34.34944 53.665574 c 9.357924,0 10.3172,-0.95864 10.3172,-10.29757 v -0.52916 c 0,9.33892 -0.959276,10.29756 -10.3172,10.29756 H 34.34944 15.032789 c -9.3579237,0 -10.3166825,-0.95864 -10.3166825,-10.29756 z"/>
   <path style="opacity:0.3" d="m 13.927947,236.64485 c -8.3551915,-0.0458 -9.2113235,1.10191 -9.2113235,10.44019 v 0.14211 0.26459 29.65503 c 0,9.33893 0.856035,10.29757 9.2113235,10.29757 h 4.017843 v -50.79949 z"/>
   <path style="opacity:0.2;fill:#ffffff" d="m 15.032789,236.64434 c -9.3578144,-0.0458 -10.3166825,0.95915 -10.3166825,10.29808 v 0.52916 c 0,-9.33892 0.9588681,-10.34385 10.3166825,-10.29808 H 34.34944 53.665574 c 9.357813,-0.0458 10.3172,0.95916 10.3172,10.29808 v -0.52916 c 0,-9.33893 -0.959387,-10.34385 -10.3172,-10.29808 H 34.34944 Z"/>
  </g>
 </g>
</svg>
